X: 79
T:Harmony. JBa.78
T:Elsie Marley,aka. JBa.78
M:6/8
L:1/8
Q:120
C:Elsie Marley,aka
S:Joseph Barnes MS,Carlisle,1762.
R:jig
O:England
A:Carlisle
N:It's either a variant of Elsie Marley  or a harmony to it.
Z:vmp.C.Graebe.
K:C major
B2 A G2G | (gdc) B2A | G2BA2B | c3 B2A |!
 G2AG2g | (gdc) c2g |B2 g A2B"single crot in ms" |c3c3 ||!
B2c d2d | d2g gdc | B2c d2 d | efg f2e |!
 d2cB2d |(gdB) B2g | B2gA2B"single crot in ms"| c3c3 |]
